X:151 
T:O'Shaughnessy's Reel
S:J.Wade < E. O Loughlin
F:file ID: cre.4/151o_shaugh
B:CRE4.148 (Ril Ui Sheachnasaigh)
L:1/8
Q:180
M:4/4
R:reel
K:G
BGFG ABce|dgfg agfe|dgfg fgab|[ac']bag fedc|
BGFG ABce|dgfg agfe|dggf dedc|BGA2 G3 ||
B|cBAG FGAF|DGGF DGGB|cBAG FGAB|cedc BGGB|
cBAG FGAF|DGFG AGFE|DGGF DEDc|BGAF G4 |]

%%%

